X: 37
T: POLKAS: Bill Sullivan's Set
T: Bill Sullivan's (Amaj) / Mickey Chewing Bubblegum
C: C: Terry Teahan / Trad.; S: Jackie Daly & Séamus Creagh
C: Set Leaders: Vova, Anton, Tania, André
Z: Anton Zille ed., Oleg Naumov arr.; JHowley / gian marco at The Session
N: https://thesession.org/members/26966/sets/96723
R: Polka
M: 2/4
L: 1/8
Q: 1/4=140
K: Amaj
|:"A"a2 a>f|"A"ec a2|"A"ce a>f|"E"ec BA|
"A"a2 a>f|"A"ec a2|"D"ce "E"B>c|1 "A"BA ce:|2 "A"BA A>B||
|:"A"ce ec|"D"df fd|"A"ce eA/B/|"E"cB BA/B/|
"A"ce ec|"D"df f>e|"A"ce "E"B>c|1 "A"BA A>B:|2 "A"BA ce||
T: Britches Full of Stitches (Amaj)
K: Amaj
|:"A"A>B cA|"A"BA cA|"A"A>B cA|"D"BA "E"F2|
"A"A>B cA|"(F#m)"BA "(E)"ce|"D"A>B AF|"E"FE E2:||
|:"A (Em)"e>f ec|"(C)"BA "E"Bc|"A"e>f ec|"D"BA "E"F2|
"F#m"e>f ec|"F#m"BA "E"Bc|"D"A>B AF|1 "D"FE "E"E2:|2 "D"FE "E"EF||

